disc-alert.svg

<svg fill="currentColor" viewBox="0 0 24 24"><path d="M10 14c-1.1 0-2-.9-2-2s.9-2 2-2 2 .9 2 2-.9 2-2 2m0-10c-4.4 0-8 3.6-8 8s3.6 8 8 8 8-3.6 8-8-3.6-8-8-8m10 9h2V7h-2m0 10h2v-2h-2z"/></svg>

<svg  viewBox="0 0 24 24" fill="currentColor"><path  d="M10 14C8.9 14 8 13.1 8 12C8 10.9 8.9 10 10 10C11.1 10 12 10.9 12 12S11.1 14 10 14M10 4C5.6 4 2 7.6 2 12S5.6 20 10 20 18 16.4 18 12 14.4 4 10 4M20 13H22V7H20M20 17H22V15H20V17Z"/></svg>
